X:1
T:6 Mélodies, VWV 1133-1137/1176
T:Les filles de Cadix, VWV 1135
T:Pauline Viardot
T:Alfred de Musset
T:A Mademoiselle CÉLINE MONVEL
T:6. Les filles de Cadix (VWV 1135) 
T:6 Mélodies
T:Creative Commons copyright waiver (CC0 1.0 Universal)
T:Creative Commons copyright waiver (CC0 1.0 Universal)
T:Creative Commons copyright waiver (CC0 1.0 Universal)
T:Creative Commons copyright waiver (CC0 1.0 Universal)
T:Creative Commons copyright waiver (CC0 1.0 Universal)
T:Creative Commons copyright waiver (CC0 1.0 Universal)
C:Pauline Viardot
Z:Alfred de Musset
Z:Creative Commons copyright waiver (CC0 1.0 Universal)
%%score 1 { 2 | 3 }
L:1/8
Q:1/4=128
M:3/8
K:D
V:1 treble nm="CHANT:\nVoice"
V:2 treble nm="PIANO."
V:3 treble 
V:1
"^Vivace." z3 | z3 | z3 | z z!f! (A |:SS d c d | B c A | (3(B/A/G/ F2-) | F2) z | (F G A- | A B d | %10
w: ||| Nous|ve- nions de|voir le tau-|reau, _ _ _|_|Trois gar- çons,|_ trois fil-|
w: ||||nous dan- sions|un bo- lé-|ro. _ _ _|_|Un soir, c'é-|* tait Di-|
 (3(c/B/A/) G2-) | G z[Q:1/4=120] (B | e d e | c d B | (3c/B/A/ G2-) | G2 z |!<(! (E F G!<)! | A3 | %18
w: let- * * tes.|_ Sur|la pe- louse|il fai- sait|beau _ _ _|_|Et nous dan-|\- sions|
w: man- * * che,|_ Vers|nous s'en vint|un hi- dal-|go, _ _ _|_|Tout cou- su|d'or,  |
!<(! F G A!<)! | !breath!B3) |!<(! G A B!<)! | e2!f! B |[Q:1/4=118] !trill(!Tc3- | c3{Bc} | d2 z | %25
w: un bo- lé-|ro    |Au son des|cas- ta-|gnet-||\- tes.|
w: plume au cha-|peau|Et le poing|sur la|han-||\- che.|
[Q:1/4=112] z3 | z3 | z3 | z!p![Q:1/4=110] D E |[Q:1/4=104] F B2 |[Q:1/4=96] (A/B/A/^G/F) | %31
w: |||"Di- tes-|moi, voi-|sin, _ _ _ _|
w: |||"Si tu|veux de|moi, _ _ _ _|
[Q:1/4=86] z3 | z D E | F B2 | (^A/B/A/^G/ F) | z!p![Q:1/4=100] F/"^avec coquetterie" ^G/ ^A/ F/ | %36
w: |Si j'ai|bon- ne|mi- * * * ne?|Di- tes- moi, voi-|
w: |Brune au|doux sou-|ri- * * * re,|Si tu veux de|
 (^G ^D2) | z ^G/ ^A/ B/ G/ | (^A ^E2) |[Q:1/4=104] z ^A/ B/ c/ A/ | B F2 | z c/ B/ ^A/ ^G/ | %42
w: sin, _|Si j'ai bon- ne|mi- ne|Et si ma bas-|qui- ne|Va bien ce ma-|
w: moi, _|Brune au doux sou-|\- ri- re|Tu n'as qu'à le|di- re,|Cet or est à|
 F2 z[Q:1/4=108] | z3 | z3 |[Q:1/4=104] z3 | z3 | z z!p![Q:1/4=100] (F | ^G ^A B | %49
w: tin?|||||Vous|me trou- vez|
w: toi."|||||"Pas-|sez vo- tre|
 (3(^A/B/A/) ^G ^^F | ^G ^D2- | ^D) z (D | F!<(! ^G!<)! ^A | (3(!>!^G/^A/G/) F ^E | F C2) | z z C | %56
w: la _ _ tail- le|fi- ne,|_ Vous|me trou- vez|la _ _ tail- le|fi- ne,|Ah!|
w: che- * * min, beau|si- re,|_ Pas-|sez vo- tre|che- * * min, beau|si- re,|Ah!|
 c2 z | C ^D/ ^E/ F/ ^G/ | ^A3- | A z C |!p! ^d3 | C ^D/ ^E/ F/ ^G/ |[Q:1/4=108] A3- | %63
w: ah!|Les fil- les de Ca-|dix,|_ Ah!|ah!|ai- ment as- sez ce-|\- la.|
w: ah!|Les fil- les de Ca-|dix|_ Ah!|ah!|n'en- ten- dent pas ce-|\- la.|
 (A2[Q:1/4=110]{/G)} (F | A =G F | A =G F | (3(A/G/F/) E2-) | E[Q:1/4=108] z E | %68
w: _ Vous|me trou- vez|la tail- le|fi- * * ne,|_ Vous|
w: _ Pas-|sez vo- tre|che- min, beau|si- * * re,|_ Pas-|
 (A[Q:1/4=104] G F | (3(A/B/A/) G F | (3(!>!A/G/F/) E2- | E)[Q:1/4=92] z!p! A, | A2 z | %73
w: me trou- vez|la * * tail- le|fi- * * ne,|_ Ah!|ah!|
w: \- sez vo- tre|che- * * min, beau|si- * * re,|_ Ah!|ah!|
[Q:1/4=88] z/ A,/ B,/ C/ D/ E/ | F3- | F z[Q:1/4=82] A, | B2 z |[Q:1/4=76] A, B,/ C/ D/ E/ | %78
w: Les fil- les de Ca-|\- dix,|_ Ah!|ah!|ai- ment as- sez ce-|
w: Les fil- les de Ca-|\- dix,|_ Ah!|ah!|n'en- ten- dent pas ce-|
 F z[Q:1/4=70] A, | =c z[Q:1/4=40] A, | %80
w: la. Ah!|ah! ah!|
w: la. Ah!|ah! ah!|
"^ten." !breath!!tenuto!^c/"^la 1° fois""^la 2° avec toute la voix"[Q:1/4=90] A,/ A,/"^p" B,/ C/[Q:1/4=50] D/ | %81
w: ah! Les fil- les de Ca-|
w: ah! Les fil- les de Ca-|
 E/ F/"^ff)""^p)" G/[Q:1/4=70] A/ B/ c/ |[Q:1/4=94] d3- |[Q:1/4=108] d3- | d2 z |[Q:1/4=116] z3 |1 %86
w: dix ai- ment as- sez ce-|la."|_|||
w: dix n'en- ten- dent pas ce-|la."|_|||
 z3 |[Q:1/4=120] z3 |[Q:1/4=122] z3 |[Q:1/4=124] z z!f! A :|2SS z3 | z3 | z3 | z3 | z3 |] %95
w: |||Et||||||
w: |||||||||
V:2
!f! [FAd][FBd][FAd] | [FBd][FAd][FBd] | [FAd][FBd]/[FBd]/[FAd] | %3
"^1°  COUPLET.""^2°  COUPLET."!>(! [FBd][FAd]!>)![FBd] |:!p! [FAd][FBd][FAd] | [FBd][FAd][FBd] | %6
 [FAd][FBd][FAd] | [FBd][FAd][FBd] | [FAd][FBd][FAd] | [FBd][FAd][FBd] | [GAe][GBe][GAe] | %11
 [GBe][GAe][GBe] | [GAe][GBe][GAe] | [GBe][GAe][GBe] | [GAe][GBe][GAe] | [GBe][GAe][GBe] | %16
 [GAe][GBe][GAe] | [GBe][GAe][GBe] | [FAd][FBd][FAd] | [FBd][FAd][FBd] |!<(! [GBd][GBe][GBd] | %21
 [GBe][GBd][GBe] | [Gce][Gcf][Gce] | [Gcf][Gce]!<)![Gcf] |!f! [FAd]{/e} (d/c/d) | .f.A.c | %26
 [FAd]{/e}(d/c/d) | [FAf]Ac | [Fd] z z | z3 | z [A,CF][A,CF] | z [A,CF][A,CF] | z [F,B,D][F,B,D] | %33
 z [F,B,D][F,B,D] | z (.[^A,CF].[A,CF]) | z (.[^A,CF].[A,CF]) | z (.[B,^D^G].[B,DG]) | %37
 z (.[B,^D^G].[B,DG]) | z (.[C^E^A].[CEA]) | z (.[C^E^A].[CEA]) | z (.[^DFB].[DFB]) | %41
 z (.[^E^Gc].[EGc]) |!f! [^Af]{/^g}(f/^e/f) | [^Ac^a]c^e | [^Af]{/^g}(f/^e/f) | [^Ac^a] c[Bc^e] | %46
 [^Af]!p! [CFA][CFA] | z [^A,CF][A,CF] | z [B,E^G][B,EG] | z [C^^F][CF] | z [B,^D^G][B,DG] | %51
 z [B,^D^G][B,DG] | z [B,=DF][B,DF] | z [B,DF][B,DF] | [^Af]!f!{/^g} (f/^e/f) | [^Ac^a][Ac][Af] | %56
 z [B,C^E^G][B,CEG] | z [B,C^E^G][B,CEG] | [^Af]!f!{/^g}(f/^e/f) | [c^a][^Ac][Af] | %60
 z [B,C^E^G][B,CEG] | z [B,C^E^G][B,CEG] |!<(! [Af]!mf!{/^g} (f/^e/!<)!!>(!f) | [ca]!>)![Ac][Af] | %64
 z (A,/^B,/F) | z (A,/^B,/F) |!p! [Ge]{/f}(e/^d/e) | [Bg][Ec][Ge] | z (A,/^B,/F) | z (A,/^B,/F) | %70
!p! [Ge]{/f}(e/^d/[Ge]) | .[Bg].[Ec].[Ge] | z!p! (A/B/c/A/ | a) z z | z (A/B/c/A/ | a) z z | %76
 z (A/B/c/A/ | a) z z | z (A/B/c/A/ | a) (A/^c/d/A/ | a) z z | z3 |!p!"^animé." [FAd][FBd][FAd] | %83
!<(! [FBd][FAd][FBd] | [FAd][FBd][FAd] | [FBd][FAd][FBd] |1 [FAd][FBd][FAd] | [FBd][FAd][FBd] | %88
 [FAd][FBd]/[FBd]/!<)![FAd] |"^2°  COUPLET." [FBd][FAd][FBd] :|2!ff! [FAd][FBd]/[FBd]/[FAd] | %91
 [FBd]/[FBd]/[FAd][FBd]/[FBd]/ | [FAd]2 z | [FAdf]2 z | [F,A,D]2 z |] %95
V:3
 [A,D][B,D][A,D] | [B,D][A,D][B,D] | [A,D][B,D][A,D] | [B,D][A,D][B,D] |: [A,D][B,D][A,D] | %5
 [B,D][A,D][B,D] | [A,D][B,D][A,D] | [B,D][A,D][B,D] | [A,D][B,D][A,D] | [B,D][A,D][B,D] | %10
 [A,E][B,E][A,E] | [B,E][A,E][A,E] | [A,E][B,E][A,E] | [B,E][A,E][A,E] | [A,E][B,E][A,E] | %15
 [B,E][A,E][A,E] | [A,E][B,E][A,E] | [B,E][A,E][A,E] | [A,D][B,D][A,D] | [B,D][A,D][B,D] | %20
 [G,D][G,E][G,D] | [G,E][G,D][G,E] | [A,E][A,F][A,E] | [A,F][A,E][A,F] | %24
[K:bass]!ped! [D,,D,] [F,A,][D,F,] | [F,A,]!ped-up!!ped! [A,,,A,,][E,F,G,]!ped-up! | %26
!ped! [D,F,][F,A,][D,F,] | [F,A,]!ped-up!!ped! [A,,,A,,][E,G,A,]!ped-up! | [D,A,] z z | z3 | %30
!p! F,,2 z | F,2 z | B,,2 z | B,,2 z |!p!!ped! F,,(.[C,F,].[C,F,]) | F,,(.[C,F,].[C,F,])!ped-up! | %36
!ped! F,,(.[^D,^G,].[D,G,]) | F,,(.[^D,^G,].[D,G,])!ped-up! |!ped! F,,(.[C,^E,^A,].[C,E,A,]) | %39
 F,,(.[C,^E,^A,].[C,E,A,])!ped-up! | F,,(.[F,B,].[F,B,]) | F,, (.[^G,C].[G,C]) | %42
!ped! [F,,F,] [^A,C][F,A,] | [^A,C] [C,,C,][^G,B,C]!ped-up! |!ped! [F,,F,] [^A,C][F,A,] | %45
 [^A,C][E,^A,][C,,C,]!ped-up! | F,,2 z | F,2 z | F,,[B,,E,][B,,E,] | F,, [E,^A,][E,A,] | %50
 F,,[^D,^G,][D,G,] | F,, [^D,^G,][D,G,] | F,, [=D,^G,][D,G,] | F,, [D,F,][D,F,] | %54
!ped! [F,,F,] [^A,C][F,A,] | [^A,C][F,A,][A,C]!ped-up! |!p! F,, z z | [F,,C,] z z | %58
 [F,,F,] [^A,C][F,A,] | [^A,C] [F,,A,][A,C] |!p! [F,,C,]2 z | C,2 z | [F,,F,] [A,C][F,A,] | %63
 [A,C] [F,,F,][A,C] |!ped!!p! ^D,3 | A,,3!ped-up! |!ped! [E,G,A,]A,,[E,G,A,] | %67
 A,,[E,G,A,]A,,!ped-up! |!ped! !>!^D,3 | A,,3!ped-up! | E,[G,A,]A,, | [E,G,A,] A,,[E,G,A,] | %72
!ped! [D,,A,,] A,,E, | [G,A,C] z!ped-up! z |!ped! [D,,A,,] (A,,E, | [F,A,]) z!ped-up! z | %76
!ped! [D,,A,,](A,,E, | [G,A,C]) z!ped-up! z |!ped! [D,,A,,](A,,E, | [F,=C]) z!ped-up! z | %80
 [F,^C] z z | z3 |[K:treble] [A,D][B,D][A,D] | [B,D][A,D][B,D] | [A,D][B,D][A,D] | %85
 [B,D][A,D][B,D] |1 [A,D][B,D][A,D] | [B,D][A,D][B,D] | [A,D][B,D][A,D] | [B,D][A,D][B,D] :|2 %90
"_D.C." [A,D][B,D][A,D] | [B,D][A,D][B,D] | [A,D]2 z | [A,D]2 z |[K:bass] [D,,D,]2 z |] %95

